src/img/icons/download.svg

<svg width="76" height="62" viewBox="0 0 76 62" fill="none" xmlns="http://www.w3.org/2000/svg">
<path d="M56.7862 28.2604C56.4015 27.5668 55.556 27.125 54.625 27.125H45.125V1.9375C45.125 0.868 44.061 0 42.75 0H33.25C31.939 0 30.875 0.868 30.875 1.9375V27.125H21.375C20.444 27.125 19.5985 27.5706 19.2137 28.2604C18.8242 28.954 18.9762 29.7639 19.589 30.3374L36.214 45.8374C36.6652 46.2598 37.316 46.5 38 46.5C38.684 46.5 39.3347 46.2559 39.786 45.8374L56.411 30.3374C57.0285 29.7677 57.171 28.954 56.7862 28.2604Z" fill="white"/>
<path d="M64.125 42.625V54.25H11.875V42.625H2.375V58.125C2.375 60.2679 4.503 62 7.125 62H68.875C71.5017 62 73.625 60.2679 73.625 58.125V42.625H64.125Z" fill="white"/>
</svg>

<svg width="76" height="62" fill="none" xmlns="http://www.w3.org/2000/svg"><path d="M56.786 28.26c-.385-.693-1.23-1.135-2.161-1.135h-9.5V1.937C45.125.869 44.061 0 42.75 0h-9.5c-1.311 0-2.375.868-2.375 1.938v25.187h-9.5c-.931 0-1.776.446-2.161 1.135-.39.694-.238 1.504.375 2.077l16.625 15.5c.451.423 1.102.663 1.786.663.684 0 1.335-.244 1.786-.663l16.625-15.5c.617-.57.76-1.383.375-2.077z" fill="#fff"/><path d="M64.125 42.625V54.25h-52.25V42.625h-9.5v15.5c0 2.143 2.128 3.875 4.75 3.875h61.75c2.627 0 4.75-1.732 4.75-3.875v-15.5h-9.5z" fill="#fff"/></svg>
